src/assets/vectors/home-utilization-icon.svg

<svg width="36" height="43" viewBox="0 0 36 43" fill="none" xmlns="http://www.w3.org/2000/svg">
<path fill-rule="evenodd" clip-rule="evenodd" d="M29.9946 0.895787L31.8285 18.3838C32.2756 18.6814 32.6913 19.0259 33.0683 19.4122C33.7827 20.1446 34.3434 21.0125 34.7172 21.9649C35.0895 22.9134 35.269 23.9265 35.2452 24.9451C35.2417 27.5794 34.1282 29.7848 32.8165 31.4727L33.805 40.9048C33.8626 41.4541 33.464 41.946 32.9147 42.0036C32.3654 42.0611 31.8735 41.6625 31.8159 41.1133L31.0104 33.4274C30.343 34.0439 29.7072 34.5373 29.2016 34.8987C28.871 35.1349 28.5938 35.3162 28.3966 35.44C28.2979 35.5019 28.2191 35.5496 28.1634 35.5826C28.1355 35.5991 28.1135 35.612 28.0976 35.6212L28.0784 35.6322L28.0724 35.6356L28.0703 35.6368L28.0694 35.6372C28.0691 35.6374 28.0688 35.6376 27.5785 34.766C27.0883 35.6376 27.0879 35.6374 27.0876 35.6372L27.0868 35.6368L27.0847 35.6356L27.0786 35.6322L27.0595 35.6212C27.0436 35.612 27.0215 35.5991 26.9936 35.5826C26.9379 35.5496 26.8591 35.5019 26.7604 35.44C26.5632 35.3162 26.286 35.1349 25.9555 34.8987C25.296 34.4275 24.4153 33.7315 23.5315 32.8311C21.7838 31.0506 19.9164 28.3578 19.9119 24.9451C19.8881 23.9265 20.0675 22.9134 20.4398 21.9649C20.8136 21.0125 21.3743 20.1446 22.0888 19.4122C22.8032 18.6799 23.6571 18.0979 24.6 17.7007C25.5427 17.3036 26.5553 17.0991 27.5782 17.0994V19.0994C26.822 19.0991 26.0733 19.2503 25.3764 19.5439C24.6795 19.8374 24.0484 20.2676 23.5203 20.8089C22.9922 21.3502 22.5778 21.9917 22.3015 22.6956C22.0252 23.3996 21.8926 24.1517 21.9115 24.9077L21.9118 24.9202V24.9327C21.9118 27.5975 23.3753 29.8169 24.9588 31.4301C25.7417 32.2277 26.5277 32.8494 27.1182 33.2714C27.2908 33.3948 27.446 33.5005 27.5785 33.588C27.7111 33.5005 27.8662 33.3948 28.0388 33.2714C28.6294 32.8494 29.4153 32.2277 30.1982 31.4301C31.7817 29.8169 33.2452 27.5975 33.2452 24.9327V24.9202L33.2455 24.9077C33.2644 24.1517 33.1318 23.3996 32.8555 22.6956C32.5792 21.9917 32.1648 21.3502 31.6367 20.8089C31.1086 20.2676 30.4775 19.8374 29.7806 19.5439C29.0837 19.2503 28.3351 19.0991 27.5788 19.0994V17.0994C28.303 17.0992 29.022 17.2016 29.7146 17.4024L28.0055 1.10437C27.9479 0.555102 28.3465 0.0631342 28.8958 0.00553411C29.4451 -0.0520659 29.937 0.346514 29.9946 0.895787ZM27.5788 21.2661L27.5788 19.0994H27.5782L27.5782 21.2661C25.6454 21.2662 24.0785 22.8332 24.0785 24.7661C24.0785 26.6991 25.6454 28.2661 27.5784 28.2661L27.5785 33.588L27.5786 28.2661C29.5116 28.266 31.0785 26.6991 31.0785 24.7661C31.0785 22.8332 29.5116 21.2663 27.5788 21.2661ZM27.5783 23.2661C26.7499 23.2662 26.0785 23.9377 26.0785 24.7661C26.0785 25.5945 26.75 26.2661 27.5784 26.2661L27.5783 23.2661ZM27.5787 26.2661L27.5787 23.2661C28.407 23.2663 29.0785 23.9378 29.0785 24.7661C29.0785 25.5945 28.407 26.266 27.5787 26.2661ZM27.5785 34.766L28.0688 35.6376L27.5785 35.9134L27.0883 35.6376L27.5785 34.766ZM4.90526 0.194173C5.45506 0.246534 5.85831 0.73468 5.80595 1.28448L1.99556 41.2935C1.9432 41.8433 1.45506 42.2465 0.90526 42.1942C0.355463 42.1418 -0.0477879 41.6537 0.00457369 41.1039L3.81496 1.09486C3.86732 0.545062 4.35546 0.141811 4.90526 0.194173ZM16.9098 8.09936C16.3575 8.09936 15.9098 7.65165 15.9098 7.09936V1.09936C15.9098 0.547079 16.3575 0.0993634 16.9098 0.0993635C17.462 0.0993635 17.9098 0.547079 17.9098 1.09936V7.09936C17.9098 7.65165 17.462 8.09936 16.9098 8.09936ZM15.9098 19.0994C15.9098 19.6516 16.3575 20.0994 16.9098 20.0994C17.462 20.0994 17.9098 19.6516 17.9098 19.0994V13.0994C17.9098 12.5471 17.462 12.0994 16.9098 12.0994C16.3575 12.0994 15.9098 12.5471 15.9098 13.0994V19.0994ZM16.9098 32.0994C16.3575 32.0994 15.9098 31.6516 15.9098 31.0994V25.0994C15.9098 24.5471 16.3575 24.0994 16.9098 24.0994C17.462 24.0994 17.9098 24.5471 17.9098 25.0994V31.0994C17.9098 31.6516 17.462 32.0994 16.9098 32.0994ZM15.9098 41.0994C15.9098 41.6516 16.3575 42.0994 16.9098 42.0994C17.462 42.0994 17.9098 41.6516 17.9098 41.0994V37.0994C17.9098 36.5471 17.462 36.0994 16.9098 36.0994C16.3575 36.0994 15.9098 36.5471 15.9098 37.0994V41.0994Z" fill="#F0F2F9"/>
</svg>

<svg width="36" height="43" fill="none" xmlns="http://www.w3.org/2000/svg"><path fill-rule="evenodd" clip-rule="evenodd" d="M29.995.896l1.833 17.488a7.674 7.674 0 0 1 2.89 3.58c.371.95.551 1.963.527 2.981-.003 2.634-1.117 4.84-2.428 6.528l.988 9.432a1 1 0 1 1-1.99.208l-.805-7.686a18.774 18.774 0 0 1-1.808 1.472 16.357 16.357 0 0 1-1.104.722l-.02.011-.006.004h-.002v.001l-.492-.871-.49.871h-.001l-.002-.001-.006-.004-.02-.01a8.151 8.151 0 0 1-.299-.182 18.521 18.521 0 0 1-3.229-2.609c-1.747-1.78-3.615-4.473-3.62-7.886a7.666 7.666 0 0 1 7.667-7.846v2a5.666 5.666 0 0 0-5.666 5.809v.025c0 2.665 1.463 4.884 3.047 6.497a16.53 16.53 0 0 0 2.62 2.158 16.524 16.524 0 0 0 2.62-2.158c1.583-1.613 3.046-3.832 3.046-6.497v-.025a5.667 5.667 0 0 0-5.666-5.809v-2c.724 0 1.443.103 2.136.303l-1.71-16.298a1 1 0 0 1 1.99-.208zm-2.416 20.37V19.1v2.167a3.5 3.5 0 0 0 0 7v5.322-5.322a3.5 3.5 0 0 0 0-7zm0 2a1.5 1.5 0 0 0 0 3v-3zm0 3v-3a1.5 1.5 0 0 1 0 3zm0 8.5l.49.872-.49.275-.49-.275.49-.872zM4.904.194a1 1 0 0 1 .9 1.09l-3.81 40.01a1 1 0 0 1-1.99-.19l3.81-40.01a1 1 0 0 1 1.09-.9zM16.91 8.1a1 1 0 0 1-1-1v-6a1 1 0 1 1 2 0v6a1 1 0 0 1-1 1zm-1 11a1 1 0 0 0 2 0v-6a1 1 0 0 0-2 0v6zm1 13a1 1 0 0 1-1-1v-6a1 1 0 1 1 2 0v6a1 1 0 0 1-1 1zm-1 9a1 1 0 0 0 2 0v-4a1 1 0 0 0-2 0v4z" fill="#F0F2F9"/></svg>
